X: 09096
T: RICK'S HORNPIPE
C: Bob McQuillen 21 Nov 92
B: Bob's Note Book 9 #96
R: hornpipe
Z: 2018 John Chambers <jc:trillian.mit.edu>
L: 1/8
M: C
K: G
DC |\
B,2G,B, DB,DG | BGBd g2dc | BGBd gedB | c2A2 A2DC |
B,2G,B, DB,DG | BGBd gedc | Bdge dBAc | B2G2 G2 :|
|: Bc |\
dedB G2Bc | dedB G2Bd | cedc BGAG | F2D2 D2DC |
B,DGD B,DGD | CEAG FEDC | B,DGB cAFG | A2G2 G2 :|
%%begintext align
%% The Hanover area has a lot of good stuff going
%% for it, such as Dartmouth College, Mary Hitchcock Hospital, Dan and Whit's
%% General Store across the river in Norwich, VT, and two nice dance
%% halls close at hand, one in Lyme and one in Etna. There are also lots of great
%% musicians nearby, and one of these is mandolin player Rick Barrows.
%% I thought this fingered OK on my mandolin, Rick - I sure hope it
%% sounds OK on yours!
%%endtext

%%sep 1 1 500

%%sep 1 1 500

